X: 21
T:A Health to Betty
M:6/8
L:1/8
Q:110
R:Jig
K:GDor
G|G>AG ^F2D|B3 Ad|d>ed c2A|f d4 e|fd2 B>cd|cA2 F2F|G>AG ^F2D|B3 A2||

